;FLAVOR:RepRap
;TIME:8212
;Filament used: 10.9316m
;Layer height: 0.2
;Generated with Cura_SteamEngine 3.3.1
T0
M190 S50
M104 S210
M109 S210
M82 ;absolute extrusion mode
G28 ;Home
G1 Z15.0 F6000 ;Move the platform down 15mm
;Prime the extruder
G92 E0
G1 F200 E3
G92 E0
M83 ;relative extrusion mode
G1 F1500 E-6.5
;LAYER_COUNT:88
;LAYER:-4
M107
G0 F9000 X32.37 Y36.551 Z0.24
G1 F1500 E6.5
G1 F1125 X32.603 Y36.345 E0.02483
G1 X32.836 Y36.164 E0.02355
G1 X33.068 Y36.006 E0.02241
G1 X33.353 Y35.838 E0.02641
G1 X33.553 Y35.734 E0.01799
G1 X33.756 Y35.64 E0.01786
G1 X34.125 Y35.487 E0.03189
G1 X34.651 Y35.304 E0.04446
G1 X34.883 Y35.237 E0.01928
G1 X35.088 Y35.19 E0.01679
G1 X48.722 Y32.472 E1.10974
G1 X49.112 Y32.419 E0.03142
G1 X49.381 Y32.401 E0.02152
G1 X49.913 Y32.4 E0.04247
G1 X50.26 Y32.411 E0.02771
G1 X78.203 Y32.415 E2.23053
G1 X78.577 Y32.439 E0.02992
G1 X78.885 Y32.478 E0.02478
G1 X79.1 Y32.518 E0.01746
G1 X80.077 Y32.611 E0.07834
G1 X83.613 Y32.611 E0.28226
G1 X84.281 Y32.569 E0.05343
G1 X84.952 Y32.44 E0.05454
G1 X85.601 Y32.227 E0.05452
G1 X86.218 Y31.935 E0.05449
G1 X86.591 Y31.697 E0.03532
G1 X86.603 Y31.715 E0.00173
G1 X87.296 Y31.173 E0.07023
G1 X87.562 Y30.992 E0.02568
G1 X87.789 Y30.857 E0.02108
G1 X88.051 Y30.723 E0.02349
G1 X88.333 Y30.6 E0.02456
G1 X88.573 Y30.514 E0.02035
G1 X88.894 Y30.42 E0.0267
G1 X89.12 Y30.37 E0.01848
G1 X89.464 Y30.318 E0.02777
G1 X89.932 Y30.281 E0.03747
G1 X90.138 Y30.272 E0.01646
G1 X93.034 Y30.276 E0.23117
G1 X93.411 Y30.3 E0.03015
G1 X93.709 Y30.337 E0.02397
G1 X93.993 Y30.392 E0.02309
G1 X94.284 Y30.468 E0.02401
G1 X94.542 Y30.552 E0.02166
G1 X94.821 Y30.663 E0.02397
G1 X95.079 Y30.785 E0.02278
G1 X95.337 Y30.928 E0.02355
G1 X95.576 Y31.08 E0.02261
G1 X95.823 Y31.262 E0.02449
G1 X96.024 Y31.431 E0.02096
G1 X96.726 Y32.092 E0.07697
G1 X97.276 Y32.495 E0.05443
G1 X97.857 Y32.816 E0.05299
G1 X98.083 Y32.923 E0.01996
G1 X98.342 Y33.067 E0.02366
G1 X98.562 Y33.207 E0.02082
G1 X98.828 Y33.405 E0.02647
G1 X99.311 Y33.827 E0.0512
G1 X99.514 Y34.037 E0.02331
G1 X99.773 Y34.332 E0.03134
G1 X99.94 Y34.547 E0.02173
G1 X100.489 Y35.362 E0.07844
G1 X100.941 Y35.874 E0.05452
G1 X101.452 Y36.326 E0.05446
G1 X102.017 Y36.709 E0.05449
G1 X102.627 Y37.018 E0.05458
G1 X103.27 Y37.248 E0.05451
G1 X103.937 Y37.394 E0.0545
G1 X104.617 Y37.456 E0.05451
G1 X105.299 Y37.431 E0.05448
G1 X105.973 Y37.32 E0.05453
G1 X106.628 Y37.125 E0.05455
G1 X107.247 Y36.851 E0.05404
G1 X107.655 Y36.616 E0.03758
G1 X107.892 Y36.489 E0.02146
G1 X108.167 Y36.362 E0.02418
G1 X108.428 Y36.26 E0.02237
G1 X108.731 Y36.165 E0.02535
G1 X108.979 Y36.103 E0.02041
G1 X109.291 Y36.047 E0.0253
G1 X109.596 Y36.012 E0.02451
G1 X109.841 Y35.996 E0.0196
G1 X110.097 Y35.993 E0.02044
G1 X112.727 Y36.051 E0.20999
G1 X113.085 Y36.082 E0.02868
G1 X113.393 Y36.128 E0.02486
G1 X113.669 Y36.187 E0.02253
G1 X113.933 Y36.26 E0.02186
G1 X114.234 Y36.365 E0.02545
G1 X114.478 Y36.469 E0.02117
G1 X114.748 Y36.603 E0.02406
G1 X115.006 Y36.753 E0.02382
G1 X115.236 Y36.907 E0.0221
G1 X115.461 Y37.08 E0.02266
G1 X115.687 Y37.276 E0.02388
G1 X115.899 Y37.485 E0.02376
G1 X116.095 Y37.705 E0.02352
G1 X116.262 Y37.918 E0.02161
G1 X116.416 Y38.142 E0.0217
G1 X116.592 Y38.442 E0.02776
G1 X116.86 Y38.991 E0.04877
G1 X116.977 Y39.279 E0.02481
G1 X117.308 Y39.947 E0.05951
G1 X117.433 Y40.159 E0.01965
G1 X117.555 Y40.4 E0.02156
G1 X117.661 Y40.646 E0.02138
G1 X117.768 Y40.944 E0.02527
G1 X117.848 Y41.223 E0.02317
G1 X117.904 Y41.484 E0.02131
G1 X117.952 Y41.804 E0.02583
G1 X117.988 Y42.265 E0.03691
G1 X117.995 Y42.45 E0.01478
G1 X117.991 Y52.29 E0.78547
G1 X117.967 Y52.667 E0.03015
G1 X117.93 Y52.965 E0.02397
G1 X117.875 Y53.249 E0.02309
G1 X117.799 Y53.54 E0.02401
G1 X117.715 Y53.798 E0.02166
G1 X117.609 Y54.065 E0.02293
G1 X117.479 Y54.339 E0.02421
G1 X117.06 Y55.094 E0.06893
G1 X117.081 Y55.105 E0.00189
G1 X117.006 Y55.244 E0.01261
G1 X116.745 Y55.847 E0.05245
G1 X116.571 Y56.193 E0.03092
G1 X116.439 Y56.418 E0.02082
G1 X116.262 Y56.681 E0.02531
G1 X116.09 Y56.903 E0.02242
G1 X115.893 Y57.129 E0.02393
G1 X115.684 Y57.339 E0.02365
G1 X115.477 Y57.522 E0.02205
G1 X115.25 Y57.699 E0.02298
G1 X115.007 Y57.865 E0.02349
G1 X114.762 Y58.011 E0.02277
G1 X114.484 Y58.152 E0.02488
G1 X114.236 Y58.259 E0.02156
G1 X113.967 Y58.356 E0.02283
G1 X113.876 Y58.382 E0.00755
G1 X113.244 Y58.609 E0.0536
G1 X112.636 Y58.918 E0.05444
G1 X112.071 Y59.303 E0.05458
G1 X111.559 Y59.755 E0.05452
G1 X111.109 Y60.268 E0.05447
G1 X110.727 Y60.833 E0.05444
G1 X110.42 Y61.443 E0.05451
G1 X110.191 Y62.087 E0.05456
G1 X110.046 Y62.754 E0.05449
G1 X109.986 Y63.434 E0.05449
G1 X110.012 Y64.117 E0.05456
G1 X110.124 Y64.788 E0.0543
G1 X110.294 Y65.369 E0.04832
G1 X110.448 Y65.801 E0.03661
G1 X110.519 Y66.048 E0.02052
G1 X110.581 Y66.331 E0.02313
G1 X110.627 Y66.642 E0.0251
G1 X110.663 Y67.106 E0.03715
G1 X110.67 Y67.293 E0.01494
G1 X110.665 Y70.167 E0.22942
G1 X110.642 Y70.533 E0.02927
G1 X110.603 Y70.842 E0.02486
G1 X110.545 Y71.14 E0.02423
G1 X110.48 Y71.393 E0.02085
G1 X110.39 Y71.671 E0.02333
G1 X110.275 Y71.959 E0.02475
G1 X110.158 Y72.205 E0.02174
G1 X110.009 Y72.474 E0.02455
G1 X109.87 Y72.691 E0.02057
G1 X109.671 Y72.958 E0.02658
G1 X109.373 Y73.307 E0.03663
G1 X109.135 Y73.555 E0.02744
G1 X108.745 Y73.902 E0.04167
G1 X108.528 Y74.071 E0.02196
G1 X108.297 Y74.227 E0.02225
G1 X108.029 Y74.385 E0.02483
G1 X107.772 Y74.515 E0.02299
G1 X107.503 Y74.63 E0.02335
G1 X107.246 Y74.723 E0.02182
G1 X106.954 Y74.807 E0.02425
G1 X106.693 Y74.863 E0.02131
G1 X106.373 Y74.911 E0.02583
G1 X105.905 Y74.947 E0.03747
G1 X105.713 Y74.954 E0.01534
G1 X103.171 Y74.95 E0.20291
G1 X102.797 Y74.926 E0.02992
G1 X102.489 Y74.887 E0.02478
G1 X102.274 Y74.847 E0.01746
G1 X101.297 Y74.754 E0.07834
G1 X97.727 Y74.754 E0.28497
G1 X97.059 Y74.796 E0.05343
G1 X96.388 Y74.925 E0.05454
G1 X95.739 Y75.138 E0.05452
G1 X95.122 Y75.43 E0.05449
G1 X94.547 Y75.798 E0.05449
G1 X94.023 Y76.236 E0.05452
G1 X93.559 Y76.736 E0.05445
G1 X93.16 Y77.292 E0.05463
G1 X92.836 Y77.892 E0.05443
G1 X92.59 Y78.528 E0.05443
G1 X92.424 Y79.197 E0.05502
G1 X92.34 Y80.136 E0.07525
G1 X92.339 Y97.667 E1.3994
G1 X92.381 Y98.336 E0.05351
G1 X92.51 Y99.005 E0.05439
G1 X92.723 Y99.655 E0.0546
G1 X93.015 Y100.271 E0.05442
G1 X93.383 Y100.847 E0.05456
G1 X93.82 Y101.371 E0.05446
G1 X94.321 Y101.835 E0.05451
G1 X94.875 Y102.234 E0.0545
G1 X95.476 Y102.558 E0.0545
G1 X96.113 Y102.804 E0.05451
G1 X96.782 Y102.97 E0.05502
G1 X97.721 Y103.054 E0.07525
G1 X101.302 Y103.054 E0.28585
G1 X102.161 Y102.983 E0.0688
G1 X102.577 Y102.913 E0.03367
G1 X103.129 Y102.864 E0.04424
G1 X103.351 Y102.854 E0.01774
G1 X105.886 Y102.858 E0.20235
G1 X106.263 Y102.882 E0.03015
G1 X106.561 Y102.919 E0.02397
G1 X106.845 Y102.974 E0.02309
G1 X107.136 Y103.05 E0.02401
G1 X107.394 Y103.134 E0.02166
G1 X107.673 Y103.245 E0.02397
G1 X107.931 Y103.367 E0.02278
G1 X108.19 Y103.511 E0.02366
G1 X108.409 Y103.65 E0.02071
G1 X108.675 Y103.848 E0.02647
G1 X109.158 Y104.27 E0.0512
G1 X109.361 Y104.48 E0.02331
G1 X109.62 Y104.775 E0.03134
G1 X109.787 Y104.99 E0.02173
G1 X109.943 Y105.221 E0.02225
G1 X110.101 Y105.489 E0.02483
G1 X110.231 Y105.745 E0.02292
G1 X110.336 Y105.987 E0.02106
G1 X110.443 Y106.285 E0.02527
G1 X110.522 Y106.561 E0.02292
G1 X110.58 Y106.827 E0.02173
G1 X110.627 Y107.143 E0.0255
G1 X110.663 Y107.606 E0.03707
G1 X110.67 Y107.791 E0.01478
G1 X110.666 Y110.67 E0.22981
G1 X110.642 Y111.047 E0.03015
G1 X110.605 Y111.345 E0.02397
G1 X110.55 Y111.629 E0.02309
G1 X110.474 Y111.92 E0.02401
G1 X110.39 Y112.178 E0.02166
G1 X110.279 Y112.457 E0.02397
G1 X110.157 Y112.715 E0.02278
G1 X110.013 Y112.974 E0.02366
G1 X109.874 Y113.193 E0.02071
G1 X109.676 Y113.459 E0.02647
G1 X109.254 Y113.942 E0.0512
G1 X109.044 Y114.145 E0.02331
G1 X108.751 Y114.402 E0.03111
G1 X108.534 Y114.571 E0.02196
G1 X108.305 Y114.726 E0.02207
G1 X108.039 Y114.883 E0.02466
G1 X107.778 Y115.015 E0.02335
G1 X107.509 Y115.13 E0.02335
G1 X107.252 Y115.223 E0.02182
G1 X106.96 Y115.307 E0.02425
G1 X106.699 Y115.363 E0.02131
G1 X106.379 Y115.411 E0.02583
G1 X105.911 Y115.447 E0.03747
G1 X105.719 Y115.454 E0.01534
G1 X103.171 Y115.45 E0.20339
G1 X102.797 Y115.426 E0.02992
G1 X102.489 Y115.387 E0.02478
G1 X102.274 Y115.347 E0.01746
G1 X101.297 Y115.254 E0.07834
G1 X84.992 Y115.25 E1.30154
G1 X84.615 Y115.226 E0.03015
G1 X84.32 Y115.189 E0.02373
G1 X84.032 Y115.134 E0.0234
G1 X83.74 Y115.057 E0.02411
G1 X83.357 Y114.93 E0.03221
G1 X83.244 Y114.888 E0.00962
G1 X82.827 Y114.686 E0.03699
G1 X82.574 Y114.543 E0.0232
G1 X82.339 Y114.389 E0.02243
G1 X82.094 Y114.203 E0.02455
G1 X81.669 Y113.828 E0.04524
G1 X74.72 Y106.879 E0.78446
G1 X74.216 Y106.437 E0.05351
G1 X73.652 Y106.054 E0.05442
G1 X73.042 Y105.745 E0.05458
G1 X72.4 Y105.516 E0.05441
G1 X71.732 Y105.369 E0.0546
G1 X71.053 Y105.308 E0.05442
G1 X70.37 Y105.333 E0.05456
G1 X69.696 Y105.444 E0.05453
G1 X69.041 Y105.64 E0.05458
G1 X68.412 Y105.918 E0.05489
G1 X68.207 Y106.049 E0.01942
G1 X68.191 Y106.027 E0.00217
G1 X67.488 Y106.504 E0.06781
G1 X67.234 Y106.653 E0.02351
G1 X66.745 Y106.892 E0.04345
G1 X66.293 Y107.048 E0.03817
G1 X66.012 Y107.124 E0.02324
G1 X65.733 Y107.18 E0.02272
G1 X65.442 Y107.219 E0.02344
G1 X65.034 Y107.248 E0.03265
G1 X64.857 Y107.254 E0.01414
G1 X56.542 Y107.254 E0.66374
G1 X55.874 Y107.296 E0.05343
G1 X55.203 Y107.425 E0.05454
G1 X54.554 Y107.638 E0.05452
G1 X53.937 Y107.93 E0.05449
G1 X53.365 Y108.296 E0.05421
G1 X52.719 Y108.811 E0.06595
G1 X52.512 Y108.951 E0.01995
G1 X52.22 Y109.123 E0.02705
G1 X51.973 Y109.248 E0.0221
G1 X51.719 Y109.357 E0.02206
G1 X51.429 Y109.461 E0.02459
G1 X51.166 Y109.537 E0.02185
G1 X50.895 Y109.596 E0.02214
G1 X50.565 Y109.644 E0.02662
G1 X50.116 Y109.678 E0.03594
G1 X49.922 Y109.686 E0.0155
G1 X44.963 Y109.682 E0.39585
G1 X44.586 Y109.658 E0.03015
G1 X44.288 Y109.621 E0.02397
G1 X44.004 Y109.566 E0.02309
G1 X43.713 Y109.49 E0.02401
G1 X43.453 Y109.405 E0.02184
G1 X43.176 Y109.295 E0.02379
G1 X42.917 Y109.172 E0.02289
G1 X42.66 Y109.03 E0.02344
G1 X42.421 Y108.878 E0.02261
G1 X42.174 Y108.696 E0.02449
G1 X41.973 Y108.527 E0.02096
G1 X41.74 Y108.307 E0.02558
G1 X41.553 Y108.105 E0.02197
G1 X41.361 Y107.87 E0.02422
G1 X41.201 Y107.647 E0.02191
G1 X41.039 Y107.387 E0.02445
G1 X40.91 Y107.148 E0.02168
G1 X40.782 Y106.87 E0.02443
G1 X40.682 Y106.612 E0.02209
G1 X40.548 Y106.185 E0.03572
G1 X40.307 Y105.563 E0.05325
G1 X40.06 Y105.091 E0.04252
G1 X39.903 Y104.827 E0.02452
G1 X39.774 Y104.571 E0.02288
G1 X39.662 Y104.31 E0.02267
G1 X39.557 Y104.017 E0.02484
G1 X39.482 Y103.756 E0.02168
G1 X39.42 Y103.474 E0.02305
G1 X39.374 Y103.163 E0.0251
G1 X39.337 Y102.675 E0.03907
G1 X39.331 Y102.512 E0.01302
G1 X39.335 Y99.637 E0.2295
G1 X39.359 Y99.261 E0.03008
G1 X39.396 Y98.963 E0.02397
G1 X39.451 Y98.679 E0.02309
G1 X39.527 Y98.388 E0.02401
G1 X39.611 Y98.129 E0.02173
G1 X39.718 Y97.86 E0.02311
G1 X39.848 Y97.586 E0.02421
G1 X39.99 Y97.33 E0.02337
G1 X40.127 Y97.115 E0.02035
G1 X40.325 Y96.849 E0.02647
G1 X40.747 Y96.366 E0.0512
G1 X40.991 Y96.13 E0.0271
G1 X41.452 Y95.64 E0.0537
G1 X41.959 Y94.912 E0.07082
G1 X42.028 Y94.795 E0.01084
G1 X42.18 Y94.566 E0.02194
G1 X42.356 Y94.335 E0.02318
G1 X42.56 Y94.099 E0.0249
G1 X42.745 Y93.91 E0.02111
G1 X42.96 Y93.717 E0.02306
G1 X43.217 Y93.514 E0.02614
G1 X43.375 Y93.405 E0.01532
G1 X43.902 Y92.991 E0.0535
G1 X44.381 Y92.505 E0.05447
G1 X44.794 Y91.961 E0.05452
G1 X45.137 Y91.37 E0.05455
G1 X45.402 Y90.74 E0.05456
G1 X45.584 Y90.083 E0.05442
G1 X45.682 Y89.407 E0.05453
G1 X45.695 Y88.724 E0.05453
G1 X45.622 Y88.046 E0.05443
G1 X45.463 Y87.381 E0.05458
G1 X45.221 Y86.743 E0.05447
G1 X44.902 Y86.139 E0.05453
G1 X44.508 Y85.582 E0.05446
G1 X44.047 Y85.077 E0.05458
G1 X43.53 Y84.639 E0.05409
G1 X43.044 Y84.289 E0.04781
G1 X42.843 Y84.12 E0.02096
G1 X42.61 Y83.9 E0.02558
G1 X42.423 Y83.698 E0.02197
G1 X42.241 Y83.475 E0.02298
G1 X42.081 Y83.254 E0.02178
G1 X41.522 Y82.328 E0.08634
G1 X40.927 Y81.618 E0.07395
G1 X40.632 Y81.314 E0.03381
G1 X40.381 Y81.028 E0.03037
G1 X40.214 Y80.813 E0.02173
G1 X40.057 Y80.58 E0.02243
G1 X39.9 Y80.314 E0.02466
G1 X39.768 Y80.053 E0.02335
G1 X39.654 Y79.787 E0.0231
G1 X39.562 Y79.531 E0.02171
G1 X39.478 Y79.239 E0.02425
G1 X39.423 Y78.983 E0.0209
G1 X39.373 Y78.646 E0.0272
G1 X39.338 Y78.189 E0.03659
G1 X39.331 Y78.005 E0.0147
G1 X39.33 Y75.297 E0.21616
G1 X39.359 Y74.754 E0.04341
G1 X39.395 Y74.468 E0.02301
G1 X39.45 Y74.181 E0.02333
G1 X39.525 Y73.889 E0.02407
G1 X39.608 Y73.635 E0.02133
G1 X39.725 Y73.341 E0.02526
G1 X39.847 Y73.086 E0.02256
G1 X39.98 Y72.845 E0.02197
G1 X40.131 Y72.61 E0.0223
G1 X40.327 Y72.345 E0.02631
G1 X40.734 Y71.878 E0.04945
G1 X41.163 Y71.465 E0.04753
G1 X41.605 Y70.961 E0.05351
G1 X41.978 Y70.412 E0.05298
G1 X42.065 Y70.266 E0.01357
G1 X42.229 Y70.024 E0.02334
G1 X42.501 Y69.674 E0.03538
G1 X42.877 Y69.12 E0.05345
G1 X43.187 Y68.512 E0.05448
G1 X43.417 Y67.869 E0.05451
G1 X43.565 Y67.202 E0.05454
G1 X43.627 Y66.522 E0.05451
G1 X43.603 Y65.84 E0.05447
G1 X43.493 Y65.165 E0.05459
G1 X43.298 Y64.511 E0.05448
G1 X43.023 Y63.886 E0.05451
G1 X42.671 Y63.301 E0.0545
G1 X42.247 Y62.765 E0.05455
G1 X41.76 Y62.287 E0.05447
G1 X41.217 Y61.873 E0.05451
G1 X40.625 Y61.533 E0.0545
G1 X39.994 Y61.268 E0.05463
G1 X39.29 Y61.077 E0.05823
G1 X37.238 Y60.672 E0.16696
G1 X35.171 Y60.26 E0.16824
G1 X34.615 Y60.12 E0.04577
G1 X34.424 Y60.059 E0.01601
G1 X34.179 Y59.966 E0.02092
G1 X33.726 Y59.773 E0.03931
G1 X33.375 Y59.601 E0.0312
G1 X33.127 Y59.459 E0.02281
G1 X32.875 Y59.293 E0.02409
G1 X32.657 Y59.128 E0.02182
G1 X32.431 Y58.935 E0.02372
G1 X32.225 Y58.733 E0.02303
G1 X32.003 Y58.488 E0.02639
G1 X31.858 Y58.308 E0.01845
G1 X31.661 Y58.031 E0.02713
G1 X31.515 Y57.799 E0.02188
G1 X31.339 Y57.491 E0.02832
G1 X31.207 Y57.22 E0.02406
G1 X31.1 Y56.959 E0.02252
G1 X31.006 Y56.68 E0.0235
G1 X30.924 Y56.379 E0.0249
G1 X30.873 Y56.125 E0.02068
G1 X30.829 Y55.805 E0.02578
G1 X30.807 Y55.545 E0.02083
G1 X30.799 Y55.287 E0.0206
G1 X30.803 Y40.029 E1.21796
G1 X30.827 Y39.652 E0.03015
G1 X30.864 Y39.354 E0.02397
G1 X30.919 Y39.07 E0.02309
G1 X30.995 Y38.779 E0.02401
G1 X31.079 Y38.521 E0.02166
G1 X31.19 Y38.242 E0.02397
G1 X31.327 Y37.953 E0.02553
G1 X31.436 Y37.752 E0.01825
G1 X31.608 Y37.472 E0.02623
G1 X31.745 Y37.276 E0.01909
G1 X31.983 Y36.968 E0.03107
G1 X32.186 Y36.736 E0.02461
G1 X32.37 Y36.551 E0.02083
G0 F9000 X32 Y36.948
G1 F1125 X32 Y58.484 E1.7191
G0 F9000 X33.6 Y59.711
G1 F1125 X33.6 Y35.712 E1.9157
G0 F9000 X35.2 Y35.167
G1 F1125 X35.2 Y60.265 E2.00343
G0 F9000 X36.8 Y60.584
G1 F1125 X36.8 Y34.848 E2.05436
G0 F9000 X38.4 Y34.529
G1 F1125 X38.4 Y60.901 E2.10513
G0 F9000 X40 Y61.27
G1 F1125 X40 Y34.21 E2.16005
G0 F9000 X41.6 Y33.891
G1 F1125 X41.6 Y62.165 E2.25695
G0 F9000 X43.2 Y64.288
G1 F1125 X43.2 Y33.572 E2.45188
G0 F9000 X44.8 Y33.253
G1 F1125 X44.8 Y85.994 E4.21001
G0 F9000 X43.2 Y84.401
G1 F1125 X43.2 Y68.475 E1.27128
G0 F9000 X41.6 Y70.966
G1 F1125 X41.6 Y82.457 E0.91726
G0 F9000 X40 Y80.483
G1 F1125 X40 Y72.813 E0.61225
G0 F9000 X45.024 Y87.523
G0 X45.168 Y88.126
G0 X45.234 Y88.739
G0 X45.228 Y89.096
G0 X44.8 Y91.95
G1 F1125 X44.8 Y109.671 E1.41457
G0 F9000 X46.4 Y109.683
G1 F1125 X46.4 Y32.934 E6.12644
G0 F9000 X48 Y32.615
G1 F1125 X48 Y109.684 E6.15198
G0 F9000 X49.6 Y109.685
G1 F1125 X49.6 Y32.4 E6.16922
G0 F9000 X51.2 Y32.412
G1 F1125 X51.2 Y109.528 E6.15573
G0 F9000 X52.8 Y108.747
G1 F1125 X52.8 Y32.412 E6.09339
G0 F9000 X54.4 Y32.412
G1 F1125 X54.4 Y107.711 E6.01069
G0 F9000 X56 Y107.289
G1 F1125 X56 Y32.412 E5.97701
G0 F9000 X57.6 Y32.413
