;FLAVOR:RepRap
;TIME:11872
;Filament used: 15.1837m
;Layer height: 0.2
;Generated with Cura_SteamEngine 3.3.1
T0
M190 S50
M104 S210
M109 S210
M82 ;absolute extrusion mode
G28 ;Home
G1 Z15.0 F6000 ;Move the platform down 15mm
;Prime the extruder
G92 E0
G1 F200 E3
G92 E0
M83 ;relative extrusion mode
G1 F1500 E-6.5
;LAYER_COUNT:141
;LAYER:-4
M107
G0 F9000 X31.926 Y24.839 Z0.24
G1 F1500 E6.5
G1 F1125 X32.104 Y24.626 E0.02216
G1 X32.326 Y24.394 E0.02563
G1 X32.528 Y24.207 E0.02197
G1 X32.75 Y24.027 E0.02281
G1 X32.979 Y23.862 E0.02253
G1 X33.245 Y23.697 E0.02499
G1 X33.492 Y23.564 E0.02239
G1 X33.914 Y23.372 E0.03701
G1 X34.124 Y23.288 E0.01805
G1 X34.336 Y23.215 E0.0179
G1 X34.961 Y23.03 E0.05203
G1 X35.177 Y22.976 E0.01777
G1 X48.646 Y20.288 E1.09636
G1 X49.16 Y20.218 E0.04141
G1 X49.416 Y20.2 E0.02049
G1 X49.931 Y20.201 E0.04111
G1 X50.258 Y20.211 E0.02611
G1 X78.203 Y20.215 E2.23069
G1 X78.577 Y20.239 E0.02992
G1 X78.885 Y20.278 E0.02478
G1 X79.1 Y20.318 E0.01746
G1 X80.077 Y20.411 E0.07834
G1 X83.472 Y20.411 E0.271
G1 X84.14 Y20.369 E0.05343
G1 X84.811 Y20.24 E0.05454
G1 X85.46 Y20.027 E0.05452
G1 X86.077 Y19.735 E0.05449
G1 X86.649 Y19.369 E0.05421
G1 X87.053 Y19.04 E0.04159
G1 X87.306 Y18.847 E0.0254
G1 X87.545 Y18.686 E0.023
G1 X87.785 Y18.546 E0.02218
G1 X88.053 Y18.412 E0.02392
G1 X88.327 Y18.295 E0.02378
G1 X88.587 Y18.204 E0.02199
G1 X88.875 Y18.123 E0.02388
G1 X89.144 Y18.065 E0.02197
G1 X89.458 Y18.02 E0.02532
G1 X89.914 Y17.986 E0.0365
G1 X90.077 Y17.98 E0.01302
G1 X93.092 Y17.984 E0.24067
G1 X93.469 Y18.008 E0.03015
G1 X93.767 Y18.045 E0.02397
G1 X94.051 Y18.1 E0.02309
G1 X94.342 Y18.176 E0.02401
G1 X94.6 Y18.26 E0.02166
G1 X94.879 Y18.371 E0.02397
G1 X95.137 Y18.493 E0.02278
G1 X95.395 Y18.636 E0.02355
G1 X95.634 Y18.788 E0.02261
G1 X95.881 Y18.97 E0.02449
G1 X96.082 Y19.139 E0.02096
G1 X96.319 Y19.363 E0.02603
G1 X96.487 Y19.545 E0.01977
G1 X96.973 Y20.007 E0.05353
G1 X97.524 Y20.412 E0.05459
G1 X97.602 Y20.455 E0.00711
G1 X98.343 Y20.868 E0.06772
G1 X98.562 Y21.007 E0.02071
G1 X98.828 Y21.205 E0.02647
G1 X99.183 Y21.509 E0.03731
G1 X99.414 Y21.73 E0.02552
G1 X99.773 Y22.132 E0.04302
G1 X99.94 Y22.347 E0.02173
G1 X100.489 Y23.162 E0.07844
G1 X100.941 Y23.674 E0.05452
G1 X101.452 Y24.126 E0.05446
G1 X102.017 Y24.509 E0.05449
G1 X102.627 Y24.818 E0.05458
G1 X103.27 Y25.048 E0.05451
G1 X103.937 Y25.194 E0.0545
G1 X104.617 Y25.256 E0.05451
G1 X105.299 Y25.231 E0.05448
G1 X105.973 Y25.12 E0.05453
G1 X106.628 Y24.925 E0.05455
G1 X107.247 Y24.651 E0.05404
G1 X107.655 Y24.416 E0.03758
G1 X107.892 Y24.289 E0.02146
G1 X108.167 Y24.162 E0.02418
G1 X108.428 Y24.06 E0.02237
G1 X108.731 Y23.965 E0.02535
G1 X108.979 Y23.903 E0.02041
G1 X109.291 Y23.847 E0.0253
G1 X109.596 Y23.812 E0.02451
G1 X109.841 Y23.796 E0.0196
G1 X110.097 Y23.793 E0.02044
G1 X112.727 Y23.851 E0.20999
G1 X113.085 Y23.882 E0.02868
G1 X113.393 Y23.928 E0.02486
G1 X113.669 Y23.987 E0.02253
G1 X113.933 Y24.06 E0.02186
G1 X114.234 Y24.165 E0.02545
G1 X114.478 Y24.269 E0.02117
G1 X114.748 Y24.403 E0.02406
G1 X115.006 Y24.553 E0.02382
G1 X115.236 Y24.707 E0.0221
G1 X115.461 Y24.88 E0.02266
G1 X115.689 Y25.078 E0.0241
G1 X115.899 Y25.285 E0.02354
G1 X116.095 Y25.505 E0.02352
G1 X116.262 Y25.718 E0.02161
G1 X116.416 Y25.942 E0.0217
G1 X116.592 Y26.242 E0.02776
G1 X116.792 Y26.642 E0.0357
G1 X116.977 Y27.079 E0.03788
G1 X117.308 Y27.747 E0.05951
G1 X117.433 Y27.959 E0.01965
G1 X117.555 Y28.2 E0.02156
G1 X117.661 Y28.446 E0.02138
G1 X117.768 Y28.744 E0.02527
G1 X117.848 Y29.023 E0.02317
G1 X117.904 Y29.284 E0.02131
G1 X117.952 Y29.604 E0.02583
G1 X117.988 Y30.065 E0.03691
G1 X117.995 Y30.25 E0.01478
G1 X117.991 Y40.127 E0.78842
G1 X117.967 Y40.504 E0.03015
G1 X117.93 Y40.802 E0.02397
G1 X117.875 Y41.086 E0.02309
G1 X117.799 Y41.377 E0.02401
G1 X117.715 Y41.635 E0.02166
G1 X117.604 Y41.914 E0.02397
G1 X117.482 Y42.172 E0.02278
G1 X117.068 Y42.918 E0.0681
G1 X117.089 Y42.93 E0.00193
G1 X116.985 Y43.129 E0.01792
G1 X116.769 Y43.63 E0.04355
G1 X116.605 Y43.962 E0.02956
G1 X116.459 Y44.216 E0.02339
G1 X116.303 Y44.449 E0.02238
G1 X116.115 Y44.698 E0.02491
G1 X115.927 Y44.917 E0.02304
G1 X115.744 Y45.103 E0.02083
G1 X115.52 Y45.305 E0.02408
G1 X115.278 Y45.496 E0.02461
G1 X115.049 Y45.655 E0.02225
G1 X114.801 Y45.804 E0.02309
G1 X114.546 Y45.936 E0.02292
G1 X114.287 Y46.052 E0.02265
G1 X114.177 Y46.092 E0.00934
G1 X113.564 Y46.365 E0.05357
G1 X112.98 Y46.718 E0.05447
G1 X112.445 Y47.143 E0.05454
G1 X111.968 Y47.632 E0.05453
G1 X111.556 Y48.176 E0.05447
G1 X111.217 Y48.769 E0.05452
G1 X110.956 Y49.399 E0.05443
G1 X110.774 Y50.062 E0.05488
G1 X110.667 Y50.969 E0.0729
G1 X110.642 Y51.415 E0.03566
G1 X110.603 Y51.724 E0.02486
G1 X110.545 Y52.022 E0.02423
G1 X110.478 Y52.282 E0.02143
G1 X110.39 Y52.553 E0.02274
G1 X110.275 Y52.841 E0.02475
G1 X110.158 Y53.087 E0.02174
G1 X110.009 Y53.356 E0.02455
G1 X109.87 Y53.573 E0.02057
G1 X109.671 Y53.84 E0.02658
G1 X109.373 Y54.189 E0.03663
G1 X109.135 Y54.437 E0.02744
G1 X108.745 Y54.784 E0.04167
G1 X108.528 Y54.953 E0.02196
G1 X108.297 Y55.109 E0.02225
G1 X108.029 Y55.267 E0.02483
G1 X107.772 Y55.397 E0.02299
G1 X107.503 Y55.512 E0.02335
G1 X107.246 Y55.605 E0.02182
G1 X106.954 Y55.689 E0.02425
G1 X106.693 Y55.745 E0.02131
G1 X106.373 Y55.793 E0.02583
G1 X105.905 Y55.829 E0.03747
G1 X105.713 Y55.836 E0.01534
G1 X103.171 Y55.832 E0.20291
G1 X102.797 Y55.808 E0.02992
G1 X102.489 Y55.769 E0.02478
G1 X102.274 Y55.729 E0.01746
G1 X101.297 Y55.636 E0.07834
G1 X97.727 Y55.636 E0.28497
G1 X97.059 Y55.678 E0.05343
G1 X96.388 Y55.807 E0.05454
G1 X95.739 Y56.02 E0.05452
G1 X95.122 Y56.312 E0.05449
G1 X94.547 Y56.68 E0.05449
G1 X94.023 Y57.118 E0.05452
G1 X93.559 Y57.618 E0.05445
G1 X93.16 Y58.174 E0.05463
G1 X92.836 Y58.774 E0.05443
G1 X92.59 Y59.41 E0.05443
G1 X92.424 Y60.079 E0.05502
G1 X92.34 Y61.018 E0.07525
G1 X92.339 Y78.549 E1.3994
G1 X92.381 Y79.218 E0.05351
G1 X92.51 Y79.887 E0.05439
G1 X92.723 Y80.537 E0.0546
G1 X93.015 Y81.153 E0.05442
G1 X93.383 Y81.729 E0.05456
G1 X93.82 Y82.253 E0.05446
G1 X94.321 Y82.717 E0.05451
G1 X94.875 Y83.116 E0.0545
G1 X95.476 Y83.44 E0.0545
G1 X96.113 Y83.686 E0.05451
G1 X96.782 Y83.852 E0.05502
G1 X97.721 Y83.936 E0.07525
G1 X101.302 Y83.936 E0.28585
G1 X102.161 Y83.865 E0.0688
G1 X102.577 Y83.795 E0.03367
G1 X103.129 Y83.746 E0.04424
G1 X103.351 Y83.736 E0.01774
G1 X105.886 Y83.74 E0.20235
G1 X106.263 Y83.764 E0.03015
G1 X106.561 Y83.801 E0.02397
G1 X106.845 Y83.856 E0.02309
G1 X107.136 Y83.932 E0.02401
G1 X107.394 Y84.016 E0.02166
G1 X107.673 Y84.127 E0.02397
G1 X107.931 Y84.249 E0.02278
G1 X108.19 Y84.393 E0.02366
G1 X108.409 Y84.532 E0.02071
G1 X108.675 Y84.73 E0.02647
G1 X109.158 Y85.152 E0.0512
G1 X109.361 Y85.362 E0.02331
G1 X109.62 Y85.657 E0.03134
G1 X109.787 Y85.872 E0.02173
G1 X109.943 Y86.103 E0.02225
G1 X110.101 Y86.371 E0.02483
G1 X110.231 Y86.627 E0.02292
G1 X110.336 Y86.869 E0.02106
G1 X110.443 Y87.167 E0.02527
G1 X110.522 Y87.443 E0.02292
G1 X110.58 Y87.709 E0.02173
G1 X110.627 Y88.025 E0.0255
G1 X110.663 Y88.488 E0.03707
G1 X110.67 Y88.673 E0.01478
G1 X110.666 Y91.552 E0.22981
G1 X110.642 Y91.929 E0.03015
G1 X110.605 Y92.227 E0.02397
G1 X110.55 Y92.511 E0.02309
G1 X110.474 Y92.802 E0.02401
G1 X110.39 Y93.06 E0.02166
G1 X110.279 Y93.339 E0.02397
G1 X110.157 Y93.597 E0.02278
G1 X110.013 Y93.856 E0.02366
G1 X109.874 Y94.075 E0.02071
G1 X109.676 Y94.341 E0.02647
G1 X109.254 Y94.824 E0.0512
G1 X109.044 Y95.027 E0.02331
G1 X108.751 Y95.284 E0.03111
G1 X108.534 Y95.453 E0.02196
G1 X108.303 Y95.609 E0.02225
G1 X108.035 Y95.767 E0.02483
G1 X107.778 Y95.897 E0.02299
G1 X107.509 Y96.012 E0.02335
G1 X107.252 Y96.105 E0.02182
G1 X106.96 Y96.189 E0.02425
G1 X106.699 Y96.245 E0.02131
G1 X106.379 Y96.293 E0.02583
G1 X105.911 Y96.329 E0.03747
G1 X105.719 Y96.336 E0.01534
G1 X103.171 Y96.332 E0.20339
G1 X102.19 Y96.27 E0.07846
G1 X102.19 Y96.277 E0.00056
G1 X101.489 Y96.323 E0.05608
G1 X100.819 Y96.456 E0.05453
G1 X100.172 Y96.672 E0.05445
G1 X99.556 Y96.968 E0.05455
G1 X98.983 Y97.339 E0.05449
G1 X98.462 Y97.78 E0.05449
G1 X97.999 Y98.282 E0.05451
G1 X97.605 Y98.839 E0.05446
G1 X97.283 Y99.442 E0.05457
G1 X97.041 Y100.079 E0.05439
G1 X96.879 Y100.748 E0.05495
G1 X96.8 Y101.66 E0.07307
G1 X96.796 Y113.961 E0.98192
G1 X96.773 Y114.333 E0.02975
G1 X96.733 Y114.648 E0.02535
G1 X96.693 Y114.863 E0.01746
G1 X96.6 Y115.84 E0.07834
G1 X96.598 Y126.799 E0.87479
G1 X96.628 Y127.465 E0.05322
G1 X96.729 Y128.074 E0.04928
G1 X96.772 Y128.393 E0.02569
G1 X96.794 Y128.65 E0.02059
G1 X96.8 Y128.867 E0.01733
G1 X96.795 Y136.034 E0.5721
G1 X96.758 Y136.587 E0.04424
G1 X96.709 Y136.98 E0.03161
G1 X96.643 Y137.374 E0.03189
G1 X96.582 Y137.659 E0.02327
G1 X96.488 Y138.031 E0.03063
G1 X96.358 Y138.399 E0.03115
G1 X96.185 Y138.853 E0.03878
G1 X96.004 Y139.267 E0.03607
G1 X95.88 Y139.512 E0.02192
G1 X95.651 Y139.92 E0.03735
G1 X95.538 Y140.091 E0.01636
G1 X95.284 Y140.451 E0.03517
G1 X95.094 Y140.692 E0.0245
G1 X94.755 Y141.08 E0.04113
G1 X94.499 Y141.345 E0.02941
G1 X94.311 Y141.527 E0.02089
G1 X93.896 Y141.88 E0.04349
G1 X93.426 Y142.23 E0.04678
G1 X93.252 Y142.347 E0.01674
G1 X92.81 Y142.613 E0.04118
G1 X92.621 Y142.715 E0.01714
G1 X92.206 Y142.909 E0.03657
G1 X91.959 Y143.011 E0.02133
G1 X91.577 Y143.15 E0.03245
G1 X91.181 Y143.273 E0.0331
G1 X90.794 Y143.372 E0.03189
G1 X90.603 Y143.41 E0.01555
G1 X90.008 Y143.5 E0.04804
G1 X89.699 Y143.526 E0.02475
G1 X89.247 Y143.55 E0.03613
G1 X88.761 Y143.554 E0.0388
G1 X88.481 Y143.538 E0.02239
G1 X87.997 Y143.492 E0.03881
G1 X87.435 Y143.409 E0.04535
G1 X86.833 Y143.282 E0.04911
G1 X86.333 Y143.146 E0.04136
G1 X86.047 Y143.044 E0.02424
G1 X85.742 Y142.914 E0.02647
G1 X85.548 Y142.817 E0.01731
G1 X85.238 Y142.641 E0.02846
G1 X84.703 Y142.308 E0.0503
G1 X84.349 Y142.07 E0.03405
G1 X84.165 Y141.935 E0.01822
G1 X83.77 Y141.606 E0.04104
G1 X83.596 Y141.447 E0.01882
G1 X83.243 Y141.083 E0.04048
G1 X82.821 Y140.583 E0.05223
G1 X82.488 Y140.121 E0.04546
G1 X82.339 Y139.889 E0.02201
G1 X82.117 Y139.5 E0.03575
G1 X81.885 Y139.024 E0.04227
G1 X81.769 Y138.75 E0.02375
G1 X81.481 Y138.145 E0.05349
G1 X81.113 Y137.57 E0.05449
G1 X80.676 Y137.045 E0.05453
G1 X80.176 Y136.581 E0.05445
G1 X79.62 Y136.183 E0.05458
G1 X79.02 Y135.858 E0.05447
G1 X78.384 Y135.612 E0.05443
G1 X77.715 Y135.446 E0.05502
G1 X76.775 Y135.362 E0.07533
G1 X53.961 Y135.36 E1.82111
G1 X53.628 Y135.346 E0.0266
G1 X53.368 Y135.319 E0.02087
G1 X52.488 Y135.203 E0.07085
G1 X51.819 Y135.073 E0.0544
G1 X51.669 Y135.034 E0.01237
G1 X51.116 Y134.838 E0.04683
G1 X50.35 Y134.521 E0.06617
G1 X50.175 Y134.441 E0.01536
G1 X49.655 Y134.18 E0.04644
G1 X49.24 Y133.901 E0.03992
G1 X48.461 Y133.308 E0.07815
G1 X47.964 Y132.881 E0.0523
G1 X47.871 Y132.786 E0.01061
G1 X47.462 Y132.313 E0.04991
G1 X46.858 Y131.517 E0.07976
G1 X46.584 Y131.109 E0.03923
G1 X46.299 Y130.544 E0.05051
G1 X45.918 Y129.634 E0.07875
G1 X45.78 Y129.248 E0.03272
G1 X45.521 Y128.63 E0.05349
G1 X45.021 Y127.77 E0.07941
G1 X44.885 Y127.498 E0.02427
G1 X44.775 Y127.24 E0.02239
G1 X44.676 Y126.959 E0.02378
G1 X44.601 Y126.691 E0.02221
G1 X44.541 Y126.415 E0.02255
G1 X44.496 Y126.102 E0.02524
G1 X44.462 Y125.634 E0.03746
G1 X44.456 Y125.475 E0.0127
G1 X44.461 Y119.887 E0.44606
G1 X44.485 Y119.512 E0.03
G1 X44.522 Y119.214 E0.02397
G1 X44.577 Y118.93 E0.02309
G1 X44.655 Y118.631 E0.02467
G1 X44.738 Y118.379 E0.02118
G1 X45.113 Y117.447 E0.08019
G1 X45.285 Y116.786 E0.05452
G1 X45.371 Y116.108 E0.05455
G1 X45.371 Y115.424 E0.0546
G1 X45.359 Y115.336 E0.00709
G1 X45.366 Y115.336 E0.00056
G1 X45.231 Y114.385 E0.07667
G1 X45.211 Y114.171 E0.01716
G1 X45.2 Y113.868 E0.0242
G1 X45.204 Y96.955 E1.35007
G1 X45.228 Y96.576 E0.03031
G1 X45.266 Y96.276 E0.02414
G1 X45.446 Y95.332 E0.07671
G1 X45.488 Y94.65 E0.05454
G1 X45.444 Y93.969 E0.05447
G1 X45.313 Y93.298 E0.05457
G1 X45.1 Y92.65 E0.05445
G1 X44.806 Y92.033 E0.05456
G1 X44.437 Y91.458 E0.05454
G1 X43.998 Y90.936 E0.05444
G1 X43.493 Y90.469 E0.05491
G1 X42.722 Y89.946 E0.07437
G1 X42.421 Y89.76 E0.02824
G1 X42.174 Y89.578 E0.02449
G1 X41.973 Y89.409 E0.02096
G1 X41.74 Y89.189 E0.02558
G1 X41.553 Y88.987 E0.02197
G1 X41.361 Y88.752 E0.02422
G1 X41.201 Y88.529 E0.02191
G1 X41.039 Y88.269 E0.02445
G1 X40.91 Y88.03 E0.02168
G1 X40.782 Y87.752 E0.02443
G1 X40.682 Y87.494 E0.02209
G1 X40.548 Y87.067 E0.03572
G1 X40.307 Y86.445 E0.05325
G1 X40.06 Y85.973 E0.04252
G1 X39.903 Y85.709 E0.02452
G1 X39.774 Y85.453 E0.02288
G1 X39.662 Y85.192 E0.02267
G1 X39.557 Y84.899 E0.02484
G1 X39.482 Y84.638 E0.02168
G1 X39.42 Y84.356 E0.02305
G1 X39.374 Y84.045 E0.0251
G1 X39.337 Y83.557 E0.03907
G1 X39.331 Y83.394 E0.01302
G1 X39.335 Y80.519 E0.2295
G1 X39.359 Y80.143 E0.03008
G1 X39.396 Y79.845 E0.02397
G1 X39.451 Y79.561 E0.02309
G1 X39.527 Y79.27 E0.02401
G1 X39.611 Y79.011 E0.02173
G1 X39.718 Y78.742 E0.02311
G1 X39.848 Y78.468 E0.02421
G1 X39.99 Y78.212 E0.02337
G1 X40.127 Y77.997 E0.02035
G1 X40.325 Y77.731 E0.02647
G1 X40.747 Y77.248 E0.0512
G1 X40.991 Y77.012 E0.0271
G1 X41.452 Y76.522 E0.0537
G1 X41.959 Y75.794 E0.07082
G1 X42.028 Y75.677 E0.01084
G1 X42.18 Y75.448 E0.02194
G1 X42.356 Y75.217 E0.02318
G1 X42.56 Y74.981 E0.0249
G1 X42.745 Y74.792 E0.02111
G1 X42.96 Y74.599 E0.02306
G1 X43.217 Y74.396 E0.02614
G1 X43.375 Y74.287 E0.01532
G1 X43.902 Y73.873 E0.0535
G1 X44.381 Y73.387 E0.05447
G1 X44.794 Y72.843 E0.05452
G1 X45.137 Y72.252 E0.05455
G1 X45.402 Y71.622 E0.05456
G1 X45.584 Y70.965 E0.05442
G1 X45.682 Y70.289 E0.05453
G1 X45.695 Y69.606 E0.05453
G1 X45.622 Y68.928 E0.05443
G1 X45.463 Y68.263 E0.05458
G1 X45.221 Y67.625 E0.05447
G1 X44.902 Y67.021 E0.05453
G1 X44.508 Y66.464 E0.05446
G1 X44.047 Y65.959 E0.05458
G1 X43.531 Y65.522 E0.05398
G1 X43.045 Y65.171 E0.04785
G1 X42.844 Y65.002 E0.02096
G1 X42.611 Y64.782 E0.02558
G1 X42.424 Y64.58 E0.02197
G1 X42.242 Y64.357 E0.02298
G1 X42.079 Y64.13 E0.02231
G1 X41.523 Y63.211 E0.08574
G1 X40.929 Y62.502 E0.07383
G1 X40.632 Y62.196 E0.03404
G1 X40.381 Y61.91 E0.03037
G1 X40.214 Y61.695 E0.02173
G1 X40.057 Y61.462 E0.02243
G1 X39.9 Y61.196 E0.02466
G1 X39.768 Y60.935 E0.02335
G1 X39.654 Y60.669 E0.0231
G1 X39.562 Y60.413 E0.02171
G1 X39.478 Y60.121 E0.02425
G1 X39.423 Y59.865 E0.0209
G1 X39.373 Y59.528 E0.0272
G1 X39.338 Y59.071 E0.03659
G1 X39.331 Y58.887 E0.0147
G1 X39.33 Y56.179 E0.21616
G1 X39.359 Y55.636 E0.04341
G1 X39.395 Y55.35 E0.02301
G1 X39.453 Y55.049 E0.02447
G1 X39.537 Y54.725 E0.02672
G1 X39.663 Y54.067 E0.05348
G1 X39.705 Y53.386 E0.05446
G1 X39.662 Y52.704 E0.05455
G1 X39.532 Y52.033 E0.05456
G1 X39.319 Y51.385 E0.05445
G1 X39.025 Y50.768 E0.05456
G1 X38.657 Y50.194 E0.05443
G1 X38.219 Y49.67 E0.05452
G1 X37.719 Y49.206 E0.05445
G1 X37.163 Y48.808 E0.05458
G1 X36.561 Y48.484 E0.05457
G1 X35.927 Y48.24 E0.05423
G1 X35.398 Y48.102 E0.04364
G1 X34.943 Y47.996 E0.03729
G1 X34.328 Y47.807 E0.05136
G1 X33.86 Y47.626 E0.04005
G1 X33.392 Y47.402 E0.04142
G1 X33.128 Y47.252 E0.02424
G1 X32.893 Y47.098 E0.02243
G1 X32.655 Y46.92 E0.02372
G1 X32.438 Y46.735 E0.02276
G1 X32.232 Y46.532 E0.02309
G1 X32.019 Y46.296 E0.02538
G1 X31.857 Y46.098 E0.02042
G1 X31.674 Y45.844 E0.02499
G1 X31.533 Y45.622 E0.02099
G1 X31.354 Y45.314 E0.02844
G1 X31.233 Y45.069 E0.02181
G1 X31.108 Y44.774 E0.02557
G1 X31.019 Y44.521 E0.02141
G1 X30.937 Y44.228 E0.02429
G1 X30.881 Y43.966 E0.02139
G1 X30.83 Y43.617 E0.02815
G1 X30.811 Y43.414 E0.01628
G1 X30.799 Y43.092 E0.02572
G1 X30.803 Y27.84 E1.21748
G1 X30.826 Y27.473 E0.02935
G1 X30.866 Y27.155 E0.02558
G1 X30.919 Y26.878 E0.02251
G1 X30.995 Y26.59 E0.02378
G1 X31.079 Y26.332 E0.02166
